X:766
T:The Hare in the Corn. No. 1.
B:O'Neill's Music of Ireland
N:O'Neill's - 766
Z:Transcribed by Stephen Foy (shf@access.digex.net)
Z:abc 1.6
M:6/8
R:Jig
K:G
3A/B/c/|d2 G d2 f|edc B2 G|c2 e dcB|cAA A2 B/c/|\
d2 G d2 f|edc BAG|Aag gfef|gGG G2:|
||3A/B/c/|.dB/c/d/B/ GBc|.dB/c/d/B/ GBd|\
.ec/d/e/c/ Ace|.ec/d/e/c/ ABc|dBd ece|fdf agfe|\
dcB Agf|gGG G2:|
